src/components/Icon/svg-icon/social/instagram.svg

<svg xmlns="http://www.w3.org/2000/svg" width="24" height="24" viewBox="0 0 24 24">
  <path fill="#0A0B09" fill-rule="evenodd" d="M11.0135241,3.00081969 L12.9864976,3.00081969 C14.5540241,3.00397928 14.8984267,3.0170988 15.7106885,3.05415994 C16.6686336,3.0978523 17.3228757,3.25000744 17.895342,3.47250621 C18.4871715,3.70247161 18.9890799,4.01021155 19.489452,4.51054797 C19.9897884,5.01092011 20.2975284,5.51282845 20.5275295,6.10465802 C20.7499926,6.67712433 20.9021477,7.33136644 20.9458401,8.28931151 C20.9829012,9.10157325 20.9960207,9.44597586 20.9991803,11.0135241 L20.9991803,12.9864976 C20.9960207,14.5540241 20.9829012,14.8984267 20.9458401,15.7106885 C20.9021477,16.6686336 20.7499926,17.3228757 20.5275295,17.895342 C20.2975284,18.4871715 19.9897884,18.9890799 19.489452,19.489452 C18.9890799,19.9897884 18.4871715,20.2975284 17.895342,20.5275295 C17.3228757,20.7499926 16.6686336,20.9021477 15.7106885,20.9458401 C14.7507428,20.9896396 14.4442532,21 12.0000179,21 C9.55574675,21 9.24925721,20.9896396 8.28931151,20.9458401 C7.33136644,20.9021477 6.67712433,20.7499926 6.10465802,20.5275295 C5.51282845,20.2975284 5.01092011,19.9897884 4.51054797,19.489452 C4.01021155,18.9890799 3.70247161,18.4871715 3.47250621,17.895342 C3.25000744,17.3228757 3.0978523,16.6686336 3.05415994,15.7106885 C3.0170988,14.8984267 3.00397928,14.5540241 3.00081969,12.9864976 L3.00081969,11.0135241 C3.00397928,9.44597586 3.0170988,9.10157325 3.05415994,8.28931151 C3.0978523,7.33136644 3.25000744,6.67712433 3.47250621,6.10465802 C3.70247161,5.51282845 4.01021155,5.01092011 4.51054797,4.51054797 C5.01092011,4.01021155 5.51282845,3.70247161 6.10465802,3.47250621 C6.67712433,3.25000744 7.33136644,3.0978523 8.28931151,3.05415994 C9.10157325,3.0170988 9.44597586,3.00397928 11.0135241,3.00081969 L12.9864976,3.00081969 Z M12.5375081,4.62180778 L11.4625197,4.62180778 C9.54710494,4.62330611 9.23632027,4.63426414 8.36322768,4.67409957 C7.48573657,4.71411219 7.00919338,4.86072987 6.69205761,4.98398304 C6.2719608,5.14724883 5.97215193,5.34227465 5.65723115,5.65723115 C5.34227465,5.97215193 5.14724883,6.2719608 4.98398304,6.69205761 C4.86072987,7.00919338 4.71411219,7.48573657 4.67409957,8.36322768 C4.63426414,9.23632027 4.62330611,9.54710494 4.62180778,11.4625197 L4.62180778,12.5375081 C4.62330611,14.4528951 4.63426414,14.7636797 4.67409957,15.6367723 C4.71411219,16.5142634 4.86072987,16.9908066 4.98398304,17.3079424 C5.14724883,17.7280392 5.34231037,18.0278481 5.65723115,18.3427688 C5.97215193,18.6577254 6.2719608,18.8527512 6.69205761,19.016017 C7.00919338,19.1392701 7.48573657,19.2858878 8.36322768,19.3259004 C9.23622167,19.3657359 9.54693797,19.3766939 11.4624815,19.3781922 L12.5375469,19.3781922 C14.4530673,19.3766939 14.7638112,19.3657359 15.6367723,19.3259004 C16.5142634,19.2858878 16.9908066,19.1392701 17.3079424,19.016017 C17.7280392,18.8527512 18.0278481,18.6577254 18.3427688,18.3427688 C18.6577254,18.0278481 18.8527512,17.7280392 19.016017,17.3079424 C19.1392701,16.9908066 19.2858878,16.5142634 19.3259004,15.6367723 C19.3657359,14.7636797 19.3766939,14.4528951 19.3781922,12.5375081 L19.3781922,11.4625197 C19.3766939,9.54710494 19.3657359,9.23632027 19.3259004,8.36322768 C19.2858878,7.48573657 19.1392701,7.00919338 19.016017,6.69205761 C18.8527512,6.2719608 18.6577254,5.97215193 18.3427688,5.65723115 C18.0278481,5.34227465 17.7280392,5.14724883 17.3079424,4.98398304 C16.9908066,4.86072987 16.5142634,4.71411219 15.6367723,4.67409957 C14.7636797,4.63426414 14.4528951,4.62330611 12.5375081,4.62180778 Z M12.0000179,7.37838128 C14.552466,7.37838128 16.6216187,9.44753404 16.6216187,12.0000179 C16.6216187,14.552466 14.552466,16.6216187 12.0000179,16.6216187 C9.44753404,16.6216187 7.37838128,14.552466 7.37838128,12.0000179 C7.37838128,9.44753404 9.44753404,7.37838128 12.0000179,7.37838128 Z M12.0000179,9 C10.343138,9 9,10.343138 9,12.0000179 C9,13.656862 10.343138,15 12.0000179,15 C13.656862,15 15,13.656862 15,12.0000179 C15,10.343138 13.656862,9 12.0000179,9 Z M16.804212,6.11576867 C17.4006859,6.11576867 17.8842313,6.59931407 17.8842313,7.19578796 C17.8842313,7.79226184 17.4006859,8.27577152 16.804212,8.27577152 C16.2077739,8.27577152 15.7242285,7.79226184 15.7242285,7.19578796 C15.7242285,6.59931407 16.2077739,6.11576867 16.804212,6.11576867 Z"/>
</svg>

<svg xmlns="http://www.w3.org/2000/svg" width="24" height="24"><path fill="#0A0B09" fill-rule="evenodd" d="M11.014 3h1.972c1.568.004 1.912.017 2.725.054.958.044 1.612.196 2.184.419.592.23 1.094.537 1.594 1.038.5.5.809 1.002 1.039 1.594.222.572.374 1.226.418 2.184.037.813.05 1.157.053 2.725v1.972c-.003 1.568-.016 1.912-.053 2.725-.044.958-.196 1.612-.418 2.184a4.412 4.412 0 01-1.039 1.594c-.5.5-1.002.809-1.594 1.039-.572.222-1.226.374-2.184.418-.96.044-1.267.054-3.711.054s-2.75-.01-3.71-.054c-.959-.044-1.613-.196-2.185-.418a4.412 4.412 0 01-1.594-1.039c-.5-.5-.809-1.002-1.038-1.594-.223-.572-.375-1.226-.419-2.184-.037-.813-.05-1.157-.053-2.725v-1.972c.003-1.568.016-1.912.053-2.725.044-.958.196-1.612.419-2.184A4.411 4.411 0 014.51 4.51c.5-.5 1.002-.809 1.594-1.038.572-.223 1.226-.375 2.184-.419.813-.037 1.157-.05 2.725-.053h1.972zm1.524 1.622h-1.075c-1.916.001-2.227.012-3.1.052-.877.04-1.354.187-1.67.31a2.79 2.79 0 00-1.036.673c-.315.315-.51.615-.673 1.035-.123.317-.27.794-.31 1.671-.04.873-.05 1.184-.052 3.1v1.075c.001 1.915.012 2.226.052 3.099.04.877.187 1.354.31 1.67.163.421.358.72.673 1.036.315.315.615.51 1.035.673.317.123.794.27 1.671.31.873.04 1.184.05 3.1.052h1.075c1.915-.001 2.226-.012 3.099-.052.877-.04 1.354-.187 1.67-.31a2.79 2.79 0 001.036-.673c.315-.315.51-.615.673-1.035.123-.317.27-.794.31-1.671.04-.873.05-1.184.052-3.1v-1.074c-.001-1.916-.012-2.227-.052-3.1-.04-.877-.187-1.354-.31-1.67a2.788 2.788 0 00-.673-1.036 2.788 2.788 0 00-1.035-.673c-.317-.123-.794-.27-1.671-.31-.873-.04-1.184-.05-3.1-.052zM12 7.378a4.622 4.622 0 110 9.244 4.622 4.622 0 010-9.244zM12 9a3 3 0 100 6 3 3 0 000-6zm4.804-2.884a1.08 1.08 0 110 2.16 1.08 1.08 0 010-2.16z"/></svg>
